findly-builder/apps/searchassist/src/assets/icons/sidemenu/new-icons/result-template-active.svg

<svg width="14" height="14" viewBox="0 0 14 14" fill="none" xmlns="http://www.w3.org/2000/svg">
<path fill-rule="evenodd" clip-rule="evenodd" d="M0.5 2C0.5 1.17186 1.17186 0.5 2 0.5H12C12.8281 0.5 13.5 1.17186 13.5 2V12C13.5 12.8281 12.8281 13.5 12 13.5H2C1.17186 13.5 0.5 12.8281 0.5 12V2ZM2 1.5C1.72414 1.5 1.5 1.72414 1.5 2V12C1.5 12.2759 1.72414 12.5 2 12.5H12C12.2759 12.5 12.5 12.2759 12.5 12V2C12.5 1.72414 12.2759 1.5 12 1.5H2ZM3 4C3 3.72386 3.22386 3.5 3.5 3.5C3.77614 3.5 4 3.72386 4 4C4 4.27614 3.77614 4.5 3.5 4.5C3.22386 4.5 3 4.27614 3 4ZM3 7C3 6.72386 3.22386 6.5 3.5 6.5C3.77614 6.5 4 6.72386 4 7C4 7.27614 3.77614 7.5 3.5 7.5C3.22386 7.5 3 7.27614 3 7ZM5 7C5 6.72386 5.22386 6.5 5.5 6.5H10.5C10.7761 6.5 11 6.72386 11 7C11 7.27614 10.7761 7.5 10.5 7.5H5.5C5.22386 7.5 5 7.27614 5 7Z" fill="#0D6EFD"/>
<path d="M5 4C5 3.72386 5.22386 3.5 5.5 3.5H10.5C10.7761 3.5 11 3.72386 11 4C11 4.27614 10.7761 4.5 10.5 4.5H5.5C5.22386 4.5 5 4.27614 5 4Z" fill="#0D6EFD"/>
<path d="M3 10C3 9.72386 3.22386 9.5 3.5 9.5C3.77614 9.5 4 9.72386 4 10C4 10.2761 3.77614 10.5 3.5 10.5C3.22386 10.5 3 10.2761 3 10Z" fill="#0D6EFD"/>
<path d="M5 10C5 9.72386 5.22386 9.5 5.5 9.5H10.5C10.7761 9.5 11 9.72386 11 10C11 10.2761 10.7761 10.5 10.5 10.5H5.5C5.22386 10.5 5 10.2761 5 10Z" fill="#0D6EFD"/>
</svg>

<svg width="14" height="14" fill="none" xmlns="http://www.w3.org/2000/svg"><path fill-rule="evenodd" clip-rule="evenodd" d="M.5 2A1.5 1.5 0 0 1 2 .5h10A1.5 1.5 0 0 1 13.5 2v10a1.5 1.5 0 0 1-1.5 1.5H2A1.5 1.5 0 0 1 .5 12V2ZM2 1.5a.5.5 0 0 0-.5.5v10a.5.5 0 0 0 .5.5h10a.5.5 0 0 0 .5-.5V2a.5.5 0 0 0-.5-.5H2ZM3 4a.5.5 0 1 1 1 0 .5.5 0 0 1-1 0Zm0 3a.5.5 0 1 1 1 0 .5.5 0 0 1-1 0Zm2 0a.5.5 0 0 1 .5-.5h5a.5.5 0 0 1 0 1h-5A.5.5 0 0 1 5 7Z" fill="#0D6EFD"/><path d="M5 4a.5.5 0 0 1 .5-.5h5a.5.5 0 0 1 0 1h-5A.5.5 0 0 1 5 4Zm-2 6a.5.5 0 1 1 1 0 .5.5 0 0 1-1 0Zm2 0a.5.5 0 0 1 .5-.5h5a.5.5 0 0 1 0 1h-5A.5.5 0 0 1 5 10Z" fill="#0D6EFD"/></svg>
